public/assets/images/flags/en.svg

<svg viewBox="0 0 512 512" xmlns="http://www.w3.org/2000/svg"><path d="m0 0h512v512h-512z" fill="#012169"/><path d="m512 0v64l-190 192 190 187v69h-67l-191-188-186 188h-68v-68l186-187-186-183v-74h62l192 188 186-188z" fill="#fff"/><path d="m184 324 11 34-153 154h-42v-3zm124-12 54 8 150 147v45zm204-312-192 196-4-44 150-152zm-512 1 193 189-59-8-134-133z" fill="#c8102e"/><path d="m176 0v512h160v-512zm-176 176v160h512v-160z" fill="#fff"/><path d="m0 208v96h512v-96zm208-208v512h96v-512z" fill="#c8102e"/></svg>

<svg xmlns="http://www.w3.org/2000/svg" id="flag-icons-gb" viewBox="0 0 512 512">
  <path fill="#012169" d="M0 0h512v512H0z"/>
  <path fill="#FFF" d="M512 0v64L322 256l190 187v69h-67L254 324 68 512H0v-68l186-187L0 74V0h62l192 188L440 0z"/>
  <path fill="#C8102E" d="m184 324 11 34L42 512H0v-3l184-185zm124-12 54 8 150 147v45L308 312zM512 0 320 196l-4-44L466 0h46zM0 1l193 189-59-8L0 49V1z"/>
  <path fill="#FFF" d="M176 0v512h160V0H176zM0 176v160h512V176H0z"/>
  <path fill="#C8102E" d="M0 208v96h512v-96H0zM208 0v512h96V0h-96z"/>
</svg>
